local/share/icons/dracula-icons-main/scalable/apps/preferences-desktop-screensaver.svg

<?xml version="1.0" encoding="UTF-8"?>
<svg xmlns="http://www.w3.org/2000/svg" xmlns:xlink="http://www.w3.org/1999/xlink" width="64" height="64" viewBox="0 0 64 64">
<defs>
<filter id="filter-remove-color" x="0%" y="0%" width="100%" height="100%">
<feColorMatrix color-interpolation-filters="sRGB" values="0 0 0 0 1 0 0 0 0 1 0 0 0 0 1 0 0 0 1 0" />
</filter>
<mask id="mask-0">
<g filter="url(#filter-remove-color)">
<rect x="-6.4" y="-6.4" width="76.8" height="76.8" fill="rgb(0%, 0%, 0%)" fill-opacity="0.35"/>
</g>
</mask>
<clipPath id="clip-0">
<rect x="0" y="0" width="17" height="17"/>
</clipPath>
<g id="source-7571" clip-path="url(#clip-0)">
<path fill-rule="nonzero" fill="rgb(0%, 0%, 0%)" fill-opacity="1" d="M 8.464844 1.058594 C 6.890625 1.058594 5.433594 1.546875 4.234375 2.382812 L 12.699219 2.382812 C 11.5 1.546875 10.042969 1.058594 8.464844 1.058594 Z M 8.464844 1.058594 "/>
</g>
<mask id="mask-1">
<g filter="url(#filter-remove-color)">
<rect x="-6.4" y="-6.4" width="76.8" height="76.8" fill="rgb(0%, 0%, 0%)" fill-opacity="0.35"/>
</g>
</mask>
<clipPath id="clip-1">
<rect x="0" y="0" width="17" height="17"/>
</clipPath>
<g id="source-7575" clip-path="url(#clip-1)">
<path fill-rule="nonzero" fill="rgb(0%, 0%, 0%)" fill-opacity="1" d="M 7.410156 1.578125 L 9.523438 1.578125 C 9.671875 1.578125 9.789062 1.699219 9.789062 1.84375 C 9.789062 1.992188 9.671875 2.109375 9.523438 2.109375 L 7.410156 2.109375 C 7.261719 2.109375 7.144531 1.992188 7.144531 1.84375 C 7.144531 1.699219 7.261719 1.578125 7.410156 1.578125 Z M 7.410156 1.578125 "/>
</g>
</defs>
<path fill-rule="nonzero" fill="rgb(52.54902%, 68.235294%, 100%)" fill-opacity="1" d="M 8.464844 1.058594 C 12.558594 1.058594 15.875 4.375 15.875 8.464844 C 15.875 12.558594 12.558594 15.875 8.464844 15.875 C 4.375 15.875 1.058594 12.558594 1.058594 8.464844 C 1.058594 4.375 4.375 1.058594 8.464844 1.058594 Z M 8.464844 1.058594 "/>
<g mask="url(#mask-0)">
<use xlink:href="#source-7571"/>
</g>
<g mask="url(#mask-1)">
<use xlink:href="#source-7575"/>
</g>
<path fill-rule="nonzero" fill="rgb(100%, 100%, 100%)" fill-opacity="1" d="M 8.46875 4.800781 C 7.292969 4.800781 6.351562 5.742188 6.351562 6.914062 L 6.351562 7.671875 L 5.695312 7.671875 C 5.472656 7.671875 5.292969 7.851562 5.292969 8.070312 L 5.292969 12.109375 C 5.292969 12.332031 5.472656 12.507812 5.695312 12.507812 L 11.238281 12.507812 C 11.460938 12.507812 11.640625 12.332031 11.640625 12.109375 L 11.640625 8.070312 C 11.640625 7.851562 11.460938 7.671875 11.238281 7.671875 L 10.582031 7.671875 L 10.582031 6.914062 C 10.582031 5.742188 9.640625 4.800781 8.46875 4.800781 Z M 8.46875 5.554688 C 9.199219 5.554688 9.828125 6.183594 9.828125 6.917969 L 9.828125 7.671875 L 7.105469 7.671875 L 7.105469 6.914062 C 7.105469 6.183594 7.734375 5.554688 8.46875 5.554688 Z M 8.46875 5.554688 "/>
</svg>

<svg width="64" height="64" version="1.1" viewBox="0 0 16.933 16.933" xmlns="http://www.w3.org/2000/svg">
 <g transform="scale(.26458)">
  <rect x="4" y="4" width="55.999" height="55.999" ry="28" fill="#86aeff" stroke-width="3.9198" style="paint-order:stroke markers fill"/>
  <path d="m32 4c-5.9602 0-11.47 1.8495-16 5h32c-4.5305-3.1505-10.04-5-16-5z" opacity=".35" stroke-width="6.8086" style="paint-order:stroke markers fill"/>
  <rect x="27" y="5.9718" width="10" height="2" ry="1.0019" opacity=".35" stroke-width="3.7796" style="paint-order:stroke markers fill"/>
 </g>
 <path d="m8.4673 4.8001c-1.173 0-2.1169 0.94306-2.1169 2.1146v0.75808h-0.65499c-0.22354 0-0.40384 0.17737-0.40384 0.39842v4.04c0 0.22105 0.1803 0.39842 0.40384 0.39842h5.5422c0.22354 0 0.40384-0.17737 0.40384-0.39842v-4.04c0-0.22105-0.1803-0.39842-0.40384-0.39842h-0.65421v-0.75808c0-1.1715-0.94461-2.1146-2.1161-2.1146zm0 0.75575c0.732 0 1.3604 0.62686 1.3604 1.3604v0.75653h-2.7207v-0.75808c0-0.732 0.62686-1.3588 1.3604-1.3588z" fill="#fff" stroke-width="1.5"/>
</svg>
